X: 38
T:Pease Branle
M:C|
L:1/4
R:Branle
B:Thoinot Arbeau : Orchesographie, 1589
Z:Steve Mansfield March 2001
K:GDor
B2 Bc | d2 dd | ed cc | d2 G2 ::
GA F2 | GA BG | GA Bc | BA G2 |
GA F2 | GA BG | GA Bc | BA G2 :|

